X:262
T:New-Mown Meadow
Z: id:dc-reel-242
M:C
L:1/8
K:G Major
B|ADD2 D3G|AcBG AGEG|ADD2 EDEF|G2AG EGGB|!
ADD2 D3G|AcBG AGEG|c3A B2BA|GBAG EGG:|!
B|d2Bd edBd|dedB AGEG|d2Bd edBA|GBAG EDDB|!
d2Bd edBd|dedB AGEG|c3A B2BA|GBAG EGG:|!

